src/pos-icons/inbox-multiple-outline.svg

<svg height="24" viewBox="0 0 24 24" width="24" xmlns="http://www.w3.org/2000/svg"><path d="m19 3a2 2 0 0 1 2 2v7a2 2 0 0 1 -2 2h-14a2 2 0 0 1 -2-2v-7a2 2 0 0 1 2-2zm-14 7v2h4.4c-.6-.53-1.06-1.22-1.27-2zm14 2v-2h-3.13c-.21.78-.67 1.47-1.27 2zm0-4v-3h-14v3h5v1c0 1.07.93 2 2 2s2-.93 2-2v-1zm2 11a2 2 0 0 1 -2 2h-14a2 2 0 0 1 -2-2v-4h7v1c0 1.07.93 2 2 2s2-.93 2-2v-1h7zm-16-2v2h4.4c-.6-.53-1.06-1.22-1.27-2zm14 2v-2h-3.13c-.21.78-.67 1.47-1.27 2z"/></svg>

<?xml version="1.0" encoding="UTF-8"?><!DOCTYPE svg PUBLIC "-//W3C//DTD SVG 1.1//EN" "http://www.w3.org/Graphics/SVG/1.1/DTD/svg11.dtd"><svg xmlns="http://www.w3.org/2000/svg" xmlns:xlink="http://www.w3.org/1999/xlink" version="1.1" id="mdi-inbox-multiple-outline" width="24" height="24" viewBox="0 0 24 24"><path d="M19,3A2,2 0 0,1 21,5V12A2,2 0 0,1 19,14H5A2,2 0 0,1 3,12V5A2,2 0 0,1 5,3H19M5,10V12H9.4C8.8,11.47 8.34,10.78 8.13,10H5M19,12V10H15.87C15.66,10.78 15.2,11.47 14.6,12H19M19,8V5H5V8H10V9C10,10.07 10.93,11 12,11C13.07,11 14,10.07 14,9V8H19M21,19A2,2 0 0,1 19,21H5A2,2 0 0,1 3,19V15H10V16C10,17.07 10.93,18 12,18C13.07,18 14,17.07 14,16V15H21V19M5,17V19H9.4C8.8,18.47 8.34,17.78 8.13,17H5M19,19V17H15.87C15.66,17.78 15.2,18.47 14.6,19H19Z" /></svg>
